X: 71
T: Da gu la
L: 1/8
M: 2/4
K: C
A2A G [I:setbarnb 1]| 
c> de2 | 
E G G A/ G/ | 
E EE2 | 
e e/ e/ e d | 
c c d3/ g/ | 
e4- | 
e4 | 
Ac2d | 
e> g e d | 
c d/ e/ d c | 
A AA2 | 
c d/ e/ A G | 
E/ E/ G c3/ d/ | 
A4- | 
A4 |]

@@@ Tune index: 8739
